icons/pencil-ruler-2-line.svg

<svg xmlns="http://www.w3.org/2000/svg" width="24" height="24" fill="none"><g clip-path="url(#a)"><g><path fill="#121212" d="M7.05 14.1209L4.93 16.2429L7.758 19.0709L19.071 7.75695L16.243 4.92995L14.12 7.04995L15.535 8.46395L14.12 9.87995L12.706 8.46495L11.292 9.87995L12.706 11.2939L11.292 12.7079L9.878 11.2939L8.463 12.7079L9.878 14.1219L8.463 15.5369L7.05 14.1199V14.1209ZM16.95 2.80795L21.192 7.04995C21.3795 7.23747 21.4848 7.49178 21.4848 7.75695C21.4848 8.02211 21.3795 8.27642 21.192 8.46395L8.464 21.1919C8.27648 21.3794 8.02217 21.4847 7.757 21.4847C7.49184 21.4847 7.23753 21.3794 7.05 21.1919L2.808 16.9499C2.62053 16.7624 2.51522 16.5081 2.51522 16.2429C2.51522 15.9778 2.62053 15.7235 2.808 15.5359L15.536 2.80795C15.7235 2.62048 15.9778 2.51516 16.243 2.51516C16.5082 2.51516 16.7625 2.62048 16.95 2.80795ZM14.12 18.3629L15.535 16.9489L17.777 19.1919H19.191V17.7779L16.949 15.5349L18.363 14.1209L21 16.7569V20.9999H16.758L14.121 18.3629H14.12ZM5.636 9.87795L2.807 7.04995C2.71403 6.95707 2.64027 6.84679 2.58994 6.72539C2.53962 6.60399 2.51372 6.47386 2.51372 6.34245C2.51372 6.21103 2.53962 6.0809 2.58994 5.95951C2.64027 5.83811 2.71403 5.72782 2.807 5.63495L5.636 2.80695C5.82353 2.61948 6.07784 2.51416 6.343 2.51416C6.60817 2.51416 6.86248 2.61948 7.05 2.80695L9.88 5.63495L8.464 7.04995L6.343 4.92795L4.929 6.34295L7.05 8.46295L5.636 9.87795Z"/></g></g><defs><clipPath id="a"><rect width="24" height="24" fill="white"/></clipPath></defs></svg>

<svg width="24" height="24" fill="none" xmlns="http://www.w3.org/2000/svg"><g clip-path="url(#a)"><path d="m7.05 14.12-2.12 2.123 2.828 2.828L19.071 7.757 16.243 4.93 14.12 7.05l1.415 1.414L14.12 9.88l-1.414-1.415-1.414 1.415 1.414 1.414-1.414 1.414-1.414-1.414-1.415 1.414 1.415 1.414-1.415 1.415L7.05 14.12Zm9.9-11.312 4.242 4.242a1 1 0 0 1 0 1.414L8.464 21.192a1 1 0 0 1-1.414 0L2.808 16.95a1 1 0 0 1 0-1.414L15.536 2.808a1 1 0 0 1 1.414 0Zm-2.83 15.555 1.415-1.414 2.242 2.243h1.414v-1.414l-2.242-2.243 1.414-1.414L21 16.757V21h-4.242l-2.637-2.637h-.001ZM5.636 9.878 2.807 7.05a1 1 0 0 1 0-1.415l2.829-2.828a1 1 0 0 1 1.414 0l2.83 2.828L8.464 7.05 6.343 4.928 4.929 6.343l2.121 2.12-1.414 1.415Z" /></g><defs><clipPath id="a"><path fill="#fff" d="M0 0h24v24H0z"/></clipPath></defs></svg>
